X: 38938
T: Susan MacLeod
R: strathspey
M: 4/4
K: Dmajor
|:A>BA>G G<FF>E|D>EF<D F<A A2|B>cB>A B<dd>B|A>BA>F B2 d>B|
A>BA>G G<FF>E|D>EF<D F<A A2|d>A(3Bcd A>dG<d|F>dE<d D2 D2:|
|:F|A2 A>B F<AA>F|D>EF>D F<AF>D|B2 B>A G<BB>c|d>A(3Bcd A>dF>d|
(3BAF A>B F<AA>F|D>EF>D F<AF>D|d>A(3Bcd A>dG<d|F>dE<d D2 D2:|
|:F|A>D D2 D2 F<D|F>D D2 F<AA<d|B>E E2 E2 G>F|E2 G>A B2 B<d|
A>D D2 D2 F<D|F>D D2 F<AA<B|d>A(3Bcd A>dG<d|F>dE<d D2 D2:|
|:F|B<dd>F F<AA>F|D>EF<D F<AA>B|B<dd>G G<BB>c|d>A(3Bcd F<dB>A|
B<dd>F F<AA>F|D>EF<D F<AA>B|d>A(3Bcd A>dG<d|F>dE<d D2 D2:|

